X: 1246
T: An Dro Or Kevin
R: barndance
M: 4/4
K: Bminor
B2 f2 d3f|e2 dc cd zB|BA Bf d2 fd|1 ee dc BE FA:|2 ee dc B4||
|:cd dc d2 B2|cd dc d2 ze|1 d2 cd e2 fe|ed cA B3z:|2 d2 cd a2 f2|ed cA BE FA||

